X: 39
T: No_34_Turkey_Dance_Song_(e).krn
N: Derived from No_34_Turkey_Dance_Song_(e).krn
%%abc-version 2.0
%%abcx-abcm2ps-target-version 5.9.1 (29 Sep 2008)
%%abc-creator hum2abc beta
%%abcx-conversion-date 2019/03/15 08:36:49
%%humdrum-veritas 4138077790
%%humdrum-veritas-data 876018704
%%linebreak <none>
%%barnumbers 0
L: 1/16
M: 3/4
%%staves {1 2}
V: 1 clef=bass
V: 2 clef=bass
K: B
[V:1] [K:clef=bass][M:3/4]F4-FGFE D3B, | 
[V:2] [K:clef=bass][M:3/4]G,,2G,,2 G,,2G,,2 G,,2G,,2 | 
[V:1] D4-DEDC B,3B, | 
[V:2] z12 | 
[V:1] B,8-B,3B, ]|:  
[V:2] z12 ]|:  
[V:1] D4-DEDC B,3G, | 
[V:2] z12 | 
[V:1] B,4-B,CB,G, F,3D, | 
[V:2] z12 | 
[V:1] F,4-F,G,F,E, D,3B,, | 
[V:2] z12 | 
[V:1] D,4-D,E,D,C, B,,3B,, | 
[V:2] z12 | 
[V:1] B,,12 :|]  
[V:2] z12 :|]  



